X: 11644
T: Eileen Ni Riordain's
R: polka
M: 2/4
K: Aminor
|:ge e>f|ge e>f|ge de|cA B/2A/2G|
ge e>f|ge ed|cA A/2B/G|1 A2 A2:|2 A2 A B||
|:c>d ce|dc B>d|cA B/2A/2G|AB cd|
c>d ce|dc B>d|cA B/2A/2G|1 A2 A B:|2 A2 A2||

